X: 1
T: Prince's Feather, The
M: 4/4
L: 1/8
R: reel
K: Gmaj
~G3e dB~B2|dBde dBAB|GBdg dege|dGBd eA~A2|
eA~A2 eAdc|BdcA BGAF|Gg~g2 gddc|1 BdcA BGGF:|2 BdcA BGGB||
|:~A3B AD~D2|ABcd cBAB|~G2dG eGdG|Bdgf edcB|
~A3B AD~D2|ABcd cBAB|G2~g2 gddc|1 BdcA BGGB:|2 BdcA BGGF||
